X: 1
T:The Peacock Followed the Hen or Cuddle me, Cuddy
M:6/8
L:1/8
K:G
c>decAAcAA|c>decAAB2G|c>de cAAcAA|c>deegdB2G:||:c>degeegee|c>degeeg2d|c>
degeegee|B>cddgeB2G
% Output from ABC2Win  Version 2.1 i on 3/5/2000
